src/lib/packages/icons/src/assets/line/drag-horizontal.svg

<svg xmlns="http://www.w3.org/2000/svg" width="24" height="24" fill="none"><path fill="currentColor" d="M5 10.75A2.752 2.752 0 0 1 2.25 8 2.752 2.752 0 0 1 5 5.25 2.752 2.752 0 0 1 7.75 8 2.752 2.752 0 0 1 5 10.75Zm0-4c-.689 0-1.25.561-1.25 1.25S4.311 9.25 5 9.25 6.25 8.689 6.25 8 5.689 6.75 5 6.75Zm7 4A2.752 2.752 0 0 1 9.25 8 2.752 2.752 0 0 1 12 5.25 2.752 2.752 0 0 1 14.75 8 2.752 2.752 0 0 1 12 10.75Zm0-4c-.689 0-1.25.561-1.25 1.25s.561 1.25 1.25 1.25 1.25-.561 1.25-1.25-.561-1.25-1.25-1.25Zm7 4A2.752 2.752 0 0 1 16.25 8 2.752 2.752 0 0 1 19 5.25 2.752 2.752 0 0 1 21.75 8 2.752 2.752 0 0 1 19 10.75Zm0-4c-.689 0-1.25.561-1.25 1.25s.561 1.25 1.25 1.25 1.25-.561 1.25-1.25-.561-1.25-1.25-1.25Zm-14 12A2.752 2.752 0 0 1 2.25 16 2.752 2.752 0 0 1 5 13.25 2.752 2.752 0 0 1 7.75 16 2.752 2.752 0 0 1 5 18.75Zm0-4c-.689 0-1.25.561-1.25 1.25s.561 1.25 1.25 1.25 1.25-.561 1.25-1.25-.561-1.25-1.25-1.25Zm7 4A2.752 2.752 0 0 1 9.25 16 2.752 2.752 0 0 1 12 13.25 2.752 2.752 0 0 1 14.75 16 2.752 2.752 0 0 1 12 18.75Zm0-4c-.689 0-1.25.561-1.25 1.25s.561 1.25 1.25 1.25 1.25-.561 1.25-1.25-.561-1.25-1.25-1.25Zm7 4A2.752 2.752 0 0 1 16.25 16 2.752 2.752 0 0 1 19 13.25 2.752 2.752 0 0 1 21.75 16 2.752 2.752 0 0 1 19 18.75Zm0-4c-.689 0-1.25.561-1.25 1.25s.561 1.25 1.25 1.25 1.25-.561 1.25-1.25-.561-1.25-1.25-1.25Z"/></svg>

<svg width="24" height="24" viewBox="0 0 24 24" fill="none" xmlns="http://www.w3.org/2000/svg">
<path d="M5 10.75C3.483 10.75 2.25 9.517 2.25 8C2.25 6.483 3.483 5.25 5 5.25C6.517 5.25 7.75 6.483 7.75 8C7.75 9.517 6.517 10.75 5 10.75ZM5 6.75C4.311 6.75 3.75 7.311 3.75 8C3.75 8.689 4.311 9.25 5 9.25C5.689 9.25 6.25 8.689 6.25 8C6.25 7.311 5.689 6.75 5 6.75ZM12 10.75C10.483 10.75 9.25 9.517 9.25 8C9.25 6.483 10.483 5.25 12 5.25C13.517 5.25 14.75 6.483 14.75 8C14.75 9.517 13.517 10.75 12 10.75ZM12 6.75C11.311 6.75 10.75 7.311 10.75 8C10.75 8.689 11.311 9.25 12 9.25C12.689 9.25 13.25 8.689 13.25 8C13.25 7.311 12.689 6.75 12 6.75ZM19 10.75C17.483 10.75 16.25 9.517 16.25 8C16.25 6.483 17.483 5.25 19 5.25C20.517 5.25 21.75 6.483 21.75 8C21.75 9.517 20.517 10.75 19 10.75ZM19 6.75C18.311 6.75 17.75 7.311 17.75 8C17.75 8.689 18.311 9.25 19 9.25C19.689 9.25 20.25 8.689 20.25 8C20.25 7.311 19.689 6.75 19 6.75ZM5 18.75C3.483 18.75 2.25 17.517 2.25 16C2.25 14.483 3.483 13.25 5 13.25C6.517 13.25 7.75 14.483 7.75 16C7.75 17.517 6.517 18.75 5 18.75ZM5 14.75C4.311 14.75 3.75 15.311 3.75 16C3.75 16.689 4.311 17.25 5 17.25C5.689 17.25 6.25 16.689 6.25 16C6.25 15.311 5.689 14.75 5 14.75ZM12 18.75C10.483 18.75 9.25 17.517 9.25 16C9.25 14.483 10.483 13.25 12 13.25C13.517 13.25 14.75 14.483 14.75 16C14.75 17.517 13.517 18.75 12 18.75ZM12 14.75C11.311 14.75 10.75 15.311 10.75 16C10.75 16.689 11.311 17.25 12 17.25C12.689 17.25 13.25 16.689 13.25 16C13.25 15.311 12.689 14.75 12 14.75ZM19 18.75C17.483 18.75 16.25 17.517 16.25 16C16.25 14.483 17.483 13.25 19 13.25C20.517 13.25 21.75 14.483 21.75 16C21.75 17.517 20.517 18.75 19 18.75ZM19 14.75C18.311 14.75 17.75 15.311 17.75 16C17.75 16.689 18.311 17.25 19 17.25C19.689 17.25 20.25 16.689 20.25 16C20.25 15.311 19.689 14.75 19 14.75Z" fill="currentColor"/>
</svg>
